src/assets/logos/v2/flooreight.svg

<svg width="598" height="103" viewBox="0 0 598 103" fill="none" xmlns="http://www.w3.org/2000/svg">
<path d="M73.8223 45.5919C75.39 45.5919 76.8102 44.9545 77.8373 43.9226C78.8644 42.8906 79.5007 41.4665 79.5007 39.8931V17.0965C79.5007 15.5231 78.8644 14.0978 77.8373 13.067C76.8102 12.0363 75.39 11.3977 73.8223 11.3977C70.6855 11.3977 68.1426 8.84564 68.1426 5.69883C68.1426 4.12424 67.5075 2.70012 66.4792 1.66935C65.4522 0.637399 64.032 0 62.4642 0H17.0354C15.4676 0 14.0474 0.637399 13.0203 1.66935C11.9932 2.70012 11.3569 4.12424 11.3569 5.69883C11.3569 7.27342 10.7218 8.69754 9.69351 9.72831C8.66643 10.7591 7.24741 11.3977 5.67845 11.3977C4.1095 11.3977 2.69047 12.0363 1.66339 13.067C0.635133 14.0978 0 15.5231 0 17.0965V39.8931C0 43.0399 2.54173 45.5919 5.67845 45.5919C7.24741 45.5919 8.66643 46.2294 9.69351 47.2613C10.7218 48.2921 11.3569 49.7174 11.3569 51.2908C11.3569 52.8642 10.7218 54.2883 9.69351 55.3203C8.66643 56.3522 7.24741 56.9897 5.67845 56.9897C4.1095 56.9897 2.69047 57.6271 1.66339 58.659C0.635133 59.691 0 61.1151 0 62.6885V85.4851C0 88.6319 2.54173 91.1839 5.67845 91.1839C7.24741 91.1839 8.66643 91.8213 9.69351 92.8533C10.7218 93.884 11.3569 95.3082 11.3569 96.8828C11.3569 100.03 13.8998 102.582 17.0354 102.582H62.4642C64.032 102.582 65.4522 101.943 66.4792 100.912C67.5075 99.8815 68.1426 98.4562 68.1426 96.8828C68.1426 95.3094 68.7778 93.884 69.806 92.8533C70.8343 91.8213 72.2533 91.1839 73.8223 91.1839C75.3912 91.1839 76.8102 90.5453 77.8373 89.5145C78.8644 88.4838 79.5007 87.0585 79.5007 85.4851V62.6885C79.5007 61.1151 78.8644 59.691 77.8373 58.659C76.8102 57.6271 75.39 56.9897 73.8223 56.9897C70.6855 56.9897 68.1426 54.4376 68.1426 51.2908C68.1426 49.7174 68.7778 48.2921 69.806 47.2613C70.8343 46.2294 72.2533 45.5919 73.8223 45.5919ZM66.4792 78.1168C65.4522 79.1476 64.032 79.7862 62.4642 79.7862C60.8964 79.7862 59.4774 80.4236 58.4491 81.4556C57.4209 82.4864 56.7857 83.9105 56.7857 85.4851C56.7857 87.0597 56.1506 88.4838 55.1223 89.5145C54.0953 90.5453 52.675 91.1839 51.1073 91.1839H28.3935C25.2567 91.1839 22.7138 88.6319 22.7138 85.4851C22.7138 83.9105 22.0787 82.4864 21.0504 81.4556C20.0233 80.4236 18.6043 79.7862 17.0354 79.7862C13.8998 79.7862 11.3569 77.2342 11.3569 74.0862C11.3569 72.5128 11.9932 71.0886 13.0203 70.0567C14.0474 69.0247 15.4676 68.3873 17.0354 68.3873C18.6031 68.3873 20.0233 67.7499 21.0504 66.718C22.0787 65.6872 22.7138 64.2619 22.7138 62.6885C22.7138 61.1151 23.3501 59.691 24.3772 58.659C25.4055 57.6271 26.8257 56.9897 28.3935 56.9897H51.1073C52.675 56.9897 54.0953 57.6271 55.1223 58.659C56.1506 59.691 56.7857 61.1151 56.7857 62.6885C56.7857 65.8365 59.3286 68.3873 62.4642 68.3873C64.032 68.3873 65.4522 69.0247 66.4792 70.0567C67.5075 71.0886 68.1426 72.5128 68.1426 74.0862C68.1426 75.6596 67.5075 77.0849 66.4792 78.1168ZM66.4792 32.5237C65.4522 33.5557 64.032 34.1931 62.4642 34.1931C60.8964 34.1931 59.4774 34.8317 58.4491 35.8624C57.4209 36.8944 56.7857 38.3197 56.7857 39.8931C56.7857 41.4665 56.1506 42.8906 55.1223 43.9226C54.0953 44.9545 52.675 45.5919 51.1073 45.5919H28.3935C25.2567 45.5919 22.7138 43.0399 22.7138 39.8931C22.7138 38.3197 22.0787 36.8944 21.0504 35.8624C20.0222 34.8305 18.6043 34.1931 17.0354 34.1931C13.8998 34.1931 11.3569 31.6422 11.3569 28.4942C11.3569 26.9208 11.9932 25.4955 13.0203 24.4648C14.0474 23.434 15.4676 22.7954 17.0354 22.7954C18.6031 22.7954 20.0233 22.1579 21.0504 21.126C22.0787 20.0952 22.7138 18.6711 22.7138 17.0965C22.7138 15.5219 23.3501 14.0978 24.3772 13.067C25.4055 12.0363 26.8257 11.3977 28.3935 11.3977H51.1073C52.675 11.3977 54.0953 12.0363 55.1223 13.067C56.1506 14.0978 56.7857 15.5231 56.7857 17.0965C56.7857 20.2445 59.3286 22.7954 62.4642 22.7954C64.032 22.7954 65.4522 23.434 66.4792 24.4648C67.5075 25.4955 68.1426 26.9208 68.1426 28.4942C68.1426 30.0676 67.5075 31.4929 66.4792 32.5237Z" fill="#01D176"/>
<path d="M106.856 32.9629H144.825V40.7864H116.485V48.1176H141.925V55.7223H116.485V69.6187H106.856V32.9629Z" fill="white"/>
<path d="M150.667 69.6187V32.9629H160.35V61.7952H188.581V69.6187H150.667Z" fill="white"/>
<path d="M214.095 32.4705H216.721C229.852 32.4705 240.301 38.9263 240.301 50.4154V52.1662C240.301 63.7647 229.852 70.1111 216.721 70.1111H214.095C200.691 70.1111 190.023 63.7647 190.023 52.1662V50.4154C190.023 38.9263 200.691 32.4705 214.095 32.4705ZM214.095 40.7317C205.451 40.7317 199.925 44.1785 199.925 50.4154V52.1662C199.925 58.4578 205.451 61.8499 214.095 61.8499H216.283C224.928 61.8499 230.453 58.4578 230.453 52.1662V50.4154C230.453 44.1785 224.928 40.7317 216.283 40.7317H214.095Z" fill="white"/>
<path d="M269.286 32.4705H271.912C285.043 32.4705 295.492 38.9263 295.492 50.4154V52.1662C295.492 63.7647 285.043 70.1111 271.912 70.1111H269.286C255.882 70.1111 245.214 63.7647 245.214 52.1662V50.4154C245.214 38.9263 255.882 32.4705 269.286 32.4705ZM269.286 40.7317C260.642 40.7317 255.116 44.1785 255.116 50.4154V52.1662C255.116 58.4578 260.642 61.8499 269.286 61.8499H271.474C280.119 61.8499 285.644 58.4578 285.644 52.1662V50.4154C285.644 44.1785 280.119 40.7317 271.474 40.7317H269.286Z" fill="white"/>
<path d="M301.868 32.9629H332.67C340.767 32.9629 345.581 37.5038 345.581 43.8502V45.4915C345.581 50.306 342.791 54.081 338.141 55.6129L347.277 69.6187H336.28L327.636 56.3788H311.551V69.6187H301.868V32.9629ZM311.551 40.1846V49.0477H330.098C333.818 49.0477 335.733 47.8988 335.733 45.1085V44.2879C335.733 41.6071 333.818 40.1846 330.098 40.1846H311.551Z" fill="white"/>
<path d="M366.248 32.9629H406.734V40.5129H375.877V47.4611H403.67V54.5187H375.877V62.014H407.007V69.6187H366.248V32.9629Z" fill="white"/>
<path d="M412.658 32.9629H442.42V40.7864H432.354V61.7952H442.42V69.6187H412.658V61.7952H422.725V40.7864H412.658V32.9629Z" fill="white"/>
<path d="M469.876 32.4705H472.557C485.578 32.4705 495.097 37.7227 495.097 47.5705H485.249C485.249 43.7408 480.927 40.7317 472.557 40.7317H469.876C461.669 40.7317 457.074 44.1238 457.074 50.0872V52.385C457.074 58.6767 461.669 61.8499 469.876 61.8499H472.557C480.873 61.8499 485.414 58.8955 485.414 54.5187H495.426V69.6187H487.11V65.2419H485.249C481.912 68.4151 476.933 70.1111 471.189 70.1111H468.508C456.8 70.1111 447.171 64.5854 447.171 52.385V50.0872C447.171 37.9415 457.402 32.4705 469.876 32.4705Z" fill="white"/>
<path d="M502.436 32.9629H512.12V46.9687H536.904V32.9629H546.587V69.6187H536.904V54.847H512.12V69.6187H502.436V32.9629Z" fill="white"/>
<path d="M551.372 32.9629H597.821V40.7864H579.438V69.6187H569.754V40.7864H551.372V32.9629Z" fill="white"/>
</svg>

<svg xmlns="http://www.w3.org/2000/svg" width="598" height="103" fill="none" viewBox="0 0 598 103"><path fill="#01d176" d="M73.822 45.592a5.65 5.65 0 0 0 4.015-1.67 5.7 5.7 0 0 0 1.664-4.029V17.097a5.693 5.693 0 0 0-5.679-5.7c-3.136 0-5.68-2.551-5.68-5.698a5.7 5.7 0 0 0-1.663-4.03A5.65 5.65 0 0 0 62.464 0H17.035a5.65 5.65 0 0 0-4.015 1.67 5.7 5.7 0 0 0-1.663 4.029 5.7 5.7 0 0 1-1.663 4.03 5.65 5.65 0 0 1-4.016 1.669 5.65 5.65 0 0 0-4.015 1.669A5.7 5.7 0 0 0 0 17.097v22.796c0 3.147 2.542 5.699 5.678 5.699 1.57 0 2.988.637 4.016 1.67a5.7 5.7 0 0 1 1.663 4.029 5.7 5.7 0 0 1-1.663 4.03 5.65 5.65 0 0 1-4.016 1.669 5.65 5.65 0 0 0-4.015 1.669A5.7 5.7 0 0 0 0 62.689v22.796c0 3.147 2.542 5.699 5.678 5.699 1.57 0 2.988.637 4.016 1.67a5.7 5.7 0 0 1 1.663 4.029c0 3.147 2.543 5.699 5.678 5.699h45.43a5.65 5.65 0 0 0 4.014-1.67 5.7 5.7 0 0 0 1.664-4.03c0-1.573.635-2.998 1.663-4.029a5.65 5.65 0 0 1 4.016-1.67 5.65 5.65 0 0 0 4.015-1.669 5.7 5.7 0 0 0 1.664-4.029V62.69a5.7 5.7 0 0 0-1.664-4.03 5.65 5.65 0 0 0-4.015-1.67c-3.136 0-5.68-2.551-5.68-5.698a5.7 5.7 0 0 1 1.664-4.03 5.65 5.65 0 0 1 4.016-1.67M66.48 78.117a5.65 5.65 0 0 1-4.015 1.67 5.65 5.65 0 0 0-4.015 1.669 5.7 5.7 0 0 0-1.663 4.03 5.7 5.7 0 0 1-1.664 4.028 5.65 5.65 0 0 1-4.015 1.67H28.394c-3.137 0-5.68-2.552-5.68-5.699a5.7 5.7 0 0 0-1.664-4.03 5.65 5.65 0 0 0-4.015-1.669c-3.135 0-5.678-2.552-5.678-5.7 0-1.573.636-2.997 1.663-4.03a5.65 5.65 0 0 1 4.015-1.669 5.65 5.65 0 0 0 4.015-1.669 5.7 5.7 0 0 0 1.664-4.03c0-1.573.636-2.997 1.663-4.029a5.65 5.65 0 0 1 4.017-1.67h22.713c1.568 0 2.988.638 4.015 1.67a5.7 5.7 0 0 1 1.664 4.03c0 3.148 2.543 5.698 5.678 5.698 1.568 0 2.988.638 4.015 1.67a5.7 5.7 0 0 1 1.664 4.03 5.7 5.7 0 0 1-1.664 4.03m0-45.593a5.65 5.65 0 0 1-4.015 1.67 5.693 5.693 0 0 0-5.678 5.7 5.7 5.7 0 0 1-1.664 4.029 5.65 5.65 0 0 1-4.015 1.669H28.394c-3.137 0-5.68-2.552-5.68-5.699a5.7 5.7 0 0 0-1.664-4.03 5.65 5.65 0 0 0-4.015-1.67c-3.135 0-5.678-2.55-5.678-5.699a5.69 5.69 0 0 1 5.678-5.699 5.65 5.65 0 0 0 4.015-1.669 5.7 5.7 0 0 0 1.664-4.03 5.69 5.69 0 0 1 5.68-5.698h22.713a5.65 5.65 0 0 1 4.015 1.669 5.7 5.7 0 0 1 1.664 4.03c0 3.147 2.543 5.698 5.678 5.698a5.65 5.65 0 0 1 4.015 1.67 5.7 5.7 0 0 1 1.664 4.03 5.7 5.7 0 0 1-1.664 4.029"/><path fill="#fff" d="M106.856 32.963h37.969v7.823h-28.34v7.332h25.44v7.604h-25.44V69.62h-9.629zm43.811 36.656V32.963h9.683v28.832h28.231v7.824zm63.428-37.149h2.626c13.131 0 23.58 6.456 23.58 17.945v1.751c0 11.599-10.449 17.945-23.58 17.945h-2.626c-13.404 0-24.072-6.346-24.072-17.945v-1.75c0-11.49 10.668-17.945 24.072-17.945m0 8.262c-8.644 0-14.17 3.447-14.17 9.683v1.751c0 6.292 5.526 9.684 14.17 9.684h2.188c8.645 0 14.17-3.392 14.17-9.684v-1.75c0-6.237-5.525-9.684-14.17-9.684zm55.191-8.263h2.626c13.131 0 23.58 6.456 23.58 17.945v1.751c0 11.599-10.449 17.945-23.58 17.945h-2.626c-13.404 0-24.072-6.346-24.072-17.945v-1.75c0-11.49 10.668-17.945 24.072-17.945m0 8.262c-8.644 0-14.17 3.447-14.17 9.683v1.751c0 6.292 5.526 9.684 14.17 9.684h2.188c8.645 0 14.17-3.392 14.17-9.684v-1.75c0-6.237-5.525-9.684-14.17-9.684zm32.582-7.77h30.802c8.097 0 12.911 4.54 12.911 10.887v1.642c0 4.814-2.79 8.589-7.44 10.12l9.136 14.007H336.28l-8.644-13.24h-16.085v13.24h-9.683zm9.683 7.222v8.863h18.547c3.72 0 5.635-1.15 5.635-3.94v-.82c0-2.68-1.915-4.103-5.635-4.103zm54.697-7.222h40.486v7.55h-30.857v6.948h27.793v7.058h-27.793v7.495h31.13v7.605h-40.759zm46.41 0h29.762v7.823h-10.066v21.01h10.066v7.823h-29.762v-7.824h10.067V40.786h-10.067zm57.218-.493h2.681c13.021 0 22.54 5.253 22.54 15.1h-9.848c0-3.83-4.322-6.838-12.692-6.838h-2.681c-8.207 0-12.802 3.392-12.802 9.355v2.298c0 6.292 4.595 9.465 12.802 9.465h2.681c8.316 0 12.857-2.955 12.857-7.331h10.012v15.1h-8.316v-4.377h-1.861c-3.337 3.173-8.316 4.87-14.06 4.87h-2.681c-11.708 0-21.337-5.527-21.337-17.727v-2.298c0-12.146 10.231-17.617 22.705-17.617m32.56.493h9.684v14.006h24.784V32.963h9.683v36.656h-9.683V54.847H512.12v14.772h-9.684zm48.936 0h46.449v7.823h-18.383V69.62h-9.684V40.786h-18.382z"/></svg>
